source/img/business-rates-link.svg

<svg xmlns="http://www.w3.org/2000/svg" width="68" height="68" fill="none">
  <circle cx="34" cy="34" r="34" fill="#E2E5F2"/>
  <path fill="#132576" d="M43.3755 43.2418v-3.3485c0-.9375-.1339-1.8751-.6697-2.8127-.5357-.9376-1.2054-1.7412-2.143-2.277-.9376-.6697-2.9467-.8036-3.8842-.8036l-2.1431 2.277.8037 1.7412v4.0182l-1.3394 1.4733-1.3394-1.4733v-4.0182l.9376-1.7412L31.321 34c-1.0715 0-3.0806.1339-4.0182.8036-.9376.5358-1.4733 1.3394-2.0091 2.277-.5357.9376-.6697 1.7412-.6697 2.8127v3.3485s3.4824 1.4733 9.3758 1.4733c5.8933 0 9.3757-1.4733 9.3757-1.4733zM33.9998 23.4187c-2.5448 0-4.0181 2.4109-3.6163 5.0897.4018 2.6788 1.7412 4.5539 3.6163 4.5539 1.8752 0 3.2146-1.8751 3.6164-4.5539.4018-2.8127-1.0715-5.0897-3.6164-5.0897z"/>
</svg>

<svg width="68" height="68" viewBox="0 0 68 68" fill="none" xmlns="http://www.w3.org/2000/svg">
<circle cx="34" cy="34" r="34" fill="#E2E5F2"/>
<path d="M43.3755 43.2418V39.8933C43.3755 38.9558 43.2416 38.0182 42.7058 37.0806C42.1701 36.143 41.5004 35.3394 40.5628 34.8036C39.6252 34.1339 37.6161 34 36.6786 34L34.5355 36.277L35.3392 38.0182V42.0364L33.9998 43.5097L32.6604 42.0364V38.0182L33.598 36.277L31.321 34C30.2495 34 28.2404 34.1339 27.3028 34.8036C26.3652 35.3394 25.8295 36.143 25.2937 37.0806C24.758 38.0182 24.624 38.8218 24.624 39.8933V43.2418C24.624 43.2418 28.1064 44.7151 33.9998 44.7151C39.8931 44.7151 43.3755 43.2418 43.3755 43.2418Z" fill="#132576"/>
<path d="M33.9998 23.4187C31.455 23.4187 29.9817 25.8296 30.3835 28.5084C30.7853 31.1872 32.1247 33.0623 33.9998 33.0623C35.875 33.0623 37.2144 31.1872 37.6162 28.5084C38.018 25.6957 36.5447 23.4187 33.9998 23.4187Z" fill="#132576"/>
</svg>
